img/mobile-nav/1.svg

<svg width="42" height="42" viewBox="0 0 42 42" fill="none" xmlns="http://www.w3.org/2000/svg">
<path d="M27.4657 22.0354L28.4852 20.2533C28.6726 19.9247 28.5618 19.5056 28.2363 19.3165L22.9399 16.23C22.6154 16.0409 22.1993 16.1536 22.0119 16.4813L20.9924 18.2634L21.2414 19.2002L20.9018 19.7942L19.9738 20.0455L17.9357 23.6097L18.1846 24.5465L17.845 25.1405L16.917 25.3918L15.8975 27.1739C15.7102 27.5016 15.8219 27.9215 16.1465 28.1107L21.4428 31.1972C21.7683 31.3863 22.1835 31.2744 22.3708 30.9459L23.3903 29.1647L23.1414 28.227L23.481 27.6339L24.409 27.3826L26.4471 23.8184L26.1982 22.8816L26.5377 22.2875L27.4657 22.0354Z" stroke="#A50034" stroke-width="2" stroke-miterlimit="10"/>
<path d="M24.748 26.7867L25.3365 27.1295C28.8674 29.1868 36.1764 34.2392 37.9418 35.2684C38.9165 35.8366 40.1638 35.4992 40.7268 34.5145C41.2898 33.5306 40.9555 32.2724 39.9809 31.7041C38.2154 30.675 30.2265 26.8107 26.6956 24.7533L26.1071 24.4106" stroke="#A50034" stroke-width="2" stroke-miterlimit="10"/>
<path d="M22.667 20.8224L26.1979 22.8798" stroke="#A50034" stroke-width="2" stroke-miterlimit="10"/>
<path d="M19.9492 25.5737L23.4801 27.632" stroke="#A50034" stroke-width="2" stroke-miterlimit="10"/>
<path d="M15.074 37.4482H12.4351C11.4639 37.4482 10.6758 38.2438 10.6758 39.2241V41H27.389V39.2241C27.389 38.2438 26.6009 37.4482 25.6298 37.4482H17.7129" stroke="#A50034" stroke-width="2" stroke-miterlimit="10"/>
<path d="M12.4355 37.4483V35.6724C12.4355 34.6921 13.2237 33.8965 14.1948 33.8965H23.8709C24.8421 33.8965 25.6302 34.6921 25.6302 35.6724V37.4483" stroke="#A50034" stroke-width="2" stroke-miterlimit="10"/>
<path d="M5.96484 10.1121C6.54541 10.5365 7.25351 10.7674 8.03728 10.7674H8.91692" stroke="white" stroke-width="2" stroke-miterlimit="10" stroke-linecap="round" stroke-linejoin="round"/>
<path d="M2.75977 16.095V19.1309C2.75977 19.4461 3.05533 19.7018 3.4195 19.7018H7.3779C7.74208 19.7018 8.03764 19.4461 8.03764 19.1309V16.983" stroke="white" stroke-width="2" stroke-miterlimit="10" stroke-linecap="round" stroke-linejoin="round"/>
<path d="M25.9433 10.1121C25.3627 10.5365 24.6546 10.7674 23.8709 10.7674H22.9912" stroke="white" stroke-width="2" stroke-miterlimit="10" stroke-linecap="round" stroke-linejoin="round"/>
<path d="M25.9416 5.40952C25.9416 5.40952 24.7198 2.75723 24.4321 2.31593C24.1762 1.92257 23.885 1.67041 23.1303 1.4724C21.9656 1.16694 18.4936 1 15.9532 1C13.4128 1 9.94085 1.16694 8.7762 1.4724C8.02147 1.67041 7.7303 1.92257 7.47432 2.31593C7.18667 2.75723 5.96484 5.40952 5.96484 5.40952" stroke="white" stroke-width="2" stroke-miterlimit="10" stroke-linecap="round" stroke-linejoin="round"/>
<path d="M29.1487 13.7517V10.7683C29.1487 10.0748 29.0713 9.7329 28.6877 9.24275C28.3051 8.75172 28.035 8.3779 28.035 8.3779L30.3555 7.43936C30.6889 7.3044 30.908 6.97763 30.908 6.61535V5.4406C30.908 4.95046 30.5139 4.55266 30.0283 4.55266H26.5097L24.7504 7.21649H16.8336H7.15752L5.39823 4.55266H1.87965C1.39408 4.55266 1 4.95046 1 5.4406V6.61535C1 6.97851 1.21902 7.3044 1.55241 7.43936L3.87291 8.3779C3.87291 8.3779 3.60288 8.75083 3.21935 9.24275C2.83671 9.73379 2.75929 10.0757 2.75929 10.7683V16.0959C2.75929 16.5861 3.15337 16.9839 3.63894 16.9839H16.8336" stroke="white" stroke-width="2" stroke-miterlimit="10" stroke-linecap="round" stroke-linejoin="round"/>
<path d="M21.2315 13.4312H16.8333H10.6758" stroke="white" stroke-width="2" stroke-miterlimit="10" stroke-linecap="round" stroke-linejoin="round"/>
</svg>

<svg xmlns="http://www.w3.org/2000/svg" fill="none" viewBox="0 0 42 42">
  <path stroke="#A50034" stroke-miterlimit="10" stroke-width="2"
    d="m27.466 22.035 1.02-1.782a.689.689 0 0 0-.25-.936L22.94 16.23a.677.677 0 0 0-.928.251l-1.02 1.782.25.937-.34.594-.928.252-2.038 3.564.249.937-.34.593-.928.252-1.02 1.782a.69.69 0 0 0 .25.937l5.296 3.086c.325.19.74.077.928-.251l1.02-1.781-.25-.938.34-.593.928-.251 2.038-3.565-.249-.936.34-.595.928-.252Z" />
  <path stroke="#A50034" stroke-miterlimit="10" stroke-width="2"
    d="m24.748 26.787.588.343c3.531 2.057 10.84 7.11 12.606 8.138a2.028 2.028 0 0 0 2.785-.754 2.068 2.068 0 0 0-.746-2.81c-1.766-1.029-9.755-4.893-13.285-6.95l-.589-.343m-3.44-3.589 3.53 2.058m-6.247 2.694 3.53 2.058m-8.406 9.816h-2.639a1.77 1.77 0 0 0-1.76 1.776V41H27.39v-1.776c0-.98-.788-1.776-1.76-1.776h-7.916" />
  <path stroke="#A50034" stroke-miterlimit="10" stroke-width="2"
    d="M12.435 37.448v-1.776c0-.98.789-1.775 1.76-1.775h9.676c.971 0 1.76.795 1.76 1.775v1.776" />
  <path stroke="#fff" stroke-linecap="round" stroke-linejoin="round" stroke-miterlimit="10" stroke-width="2"
    d="M5.965 10.112c.58.425 1.289.655 2.072.655h.88M2.76 16.095v3.036c0 .315.295.57.66.57h3.958c.364 0 .66-.255.66-.57v-2.148m17.905-6.871a3.466 3.466 0 0 1-2.072.655h-.88m2.951-5.357s-1.222-2.653-1.51-3.094c-.256-.393-.547-.646-1.302-.844C21.966 1.167 18.494 1 15.953 1c-2.54 0-6.012.167-7.177.472-.755.198-1.046.45-1.302.844-.287.441-1.51 3.094-1.51 3.094" />
  <path stroke="#fff" stroke-linecap="round" stroke-linejoin="round" stroke-miterlimit="10" stroke-width="2"
    d="M29.149 13.752v-2.984c0-.693-.078-1.035-.461-1.525a33.216 33.216 0 0 1-.653-.865l2.32-.939a.889.889 0 0 0 .553-.824V5.441a.884.884 0 0 0-.88-.888H26.51l-1.76 2.663H7.158l-1.76-2.663H1.88A.884.884 0 0 0 1 5.44v1.174c0 .364.219.69.552.824l2.32.939s-.27.373-.653.865c-.382.49-.46.833-.46 1.525v5.328c0 .49.394.888.88.888h13.195m4.398-3.552H10.675" />
</svg>
